X: 4481
T: Bonnie Woodside
R: jig
M: 6/8
K: Dmajor
|:DFA GBd|FAd fed|afd FAd|cee e3
DFA GBd|FAd fed|afd FAd|1 cec d3:|2 cec dfg||
afd bge|afd FAd|GBd FAd|cee efg|
afd bge|afd FAd|GBd FAd|cec dfg|
afd bge|afd FAd|GBd FAd|cee e3
DFA GBd|FAd fed|afd FAd|cec d2||

